X:1
T:Reverend Brother's Jig, The
R:jig
M:6/8
L:1/8
K:Ador
ABA c2e|dcd ege|ABA c2e|dcA AGE|
EAA c2e|dcd ege|~a3 ged|cAG A3:|
eaa aba|gef ged|eaa aba|ged cAA|
eaa aba|gef ~g3|~a3 ged|cAG A3:|
</abc>
